!!!OTL: Gezu renmin xinlianxin
!!!ARE: Asia, China,ÿQinghai Huzhu
!! I, 244
!!!SCT: C2086
!!!YEM: Copyright 1995, estate of Helmut Schaffrath.
**kern
*ICvox
*Ivox
*M2/4
*k[b-e-]
*B-:
{8ddd
16ddd
16ddd
8ddd
16ddd
16ddd
=1
8ddd
16bb-
16ccc
4ddd
=2
4.ddd
16ddd
16fff
=3
16ddd
16ccc
16bb-
16ddd
4ccc}
=4
{8ddd
16ddd
16ddd
8ddd
16ddd
16ddd
=5
8ddd
16bb-
16ddd
4ccc
=6
16ddd
16ccc
16bb-
16ddd
4ccc
=7
8gg
8gg
16ccc
16bb-
8ccc
=8
8ff
4.gg}
==
!!!AGN: Shange, Tuzuling
!! Tuzu
!!!ONB: ESAC (Essen Associative Code) Database: SENGANSU
!!!AMT: simple duple
!!!AIN: vox
!!!EED: Helmut Schaffrath
!!!EEV: 1.0
*-
